icons/sparkle-fill-24.svg

<svg width="24" height="24" viewBox="0 0 24 24">
  <path
    d="M11.2957 1.9237C11.536 1.2675 12.464 1.2675 12.7043 1.92371L13.4213 3.88212C14.5594 6.99091 17.0091 9.44057 20.1179 10.5787L22.0763 11.2957C22.7325 11.536 22.7325 12.464 22.0763 12.7043L20.1179 13.4213C17.0091 14.5594 14.5594 17.0091 13.4213 20.1179L12.7043 22.0763C12.464 22.7325 11.536 22.7325 11.2957 22.0763L10.5787 20.1179C9.44057 17.0091 6.99091 14.5594 3.88212 13.4213L1.9237 12.7043C1.2675 12.464 1.2675 11.536 1.92371 11.2957L3.88212 10.5787C6.99091 9.44057 9.44057 6.99091 10.5787 3.88212L11.2957 1.9237Z" />
</svg>

<svg xmlns="http://www.w3.org/2000/svg" width="24" height="24" viewBox="0 0 24 24"><path d="M11.296 1.924c.24-.656 1.168-.656 1.408 0l.717 1.958a11.25 11.25 0 0 0 6.697 6.697l1.958.717c.657.24.657 1.168 0 1.408l-1.958.717a11.25 11.25 0 0 0-6.697 6.697l-.717 1.958c-.24.657-1.168.657-1.408 0l-.717-1.958a11.25 11.25 0 0 0-6.697-6.697l-1.958-.717c-.656-.24-.656-1.168 0-1.408l1.958-.717a11.25 11.25 0 0 0 6.697-6.697l.717-1.958Z"/></svg>
